X:0388
T:My Dearie an thou die.
M:2/4
L:1/16
Q:1/4=72
I: :: ::
Z:Jack Campin * www.campin.me.uk * 2009
K:A Minor
 ed |c2G2 G2E2 | G3A    (GA)(cd)|(ed)(cB)  (AB)(AG)| A6
 c2 |G3A  c3e  |(dc)(de) g2a2   | g2e2     (fe)(dc)|(A4 A2):|
 ef |g3a  g2e2 | g4      g2(eg) |(ab)(c'b) (age).g | a4 a2
(AB)|c3d (e2dc)| (dcd).e g2a2   |(gac').e  (fed).c |(A4 A2):|

